packages/kaspersky-hexa-ui-icons/src/iconsSVGs/48/HardDriveMonitor.svg

<svg width="48" height="48" viewBox="0 0 48 48" fill="none" xmlns="http://www.w3.org/2000/svg">
<path fill-rule="evenodd" clip-rule="evenodd" d="M5 0V48H43V0H5ZM41 46H7V2H41V46ZM39 19L36.93 17V12.7L39 10.7V4H9V10.57L11.07 12.57V16.87L9 19V44H39V19ZM11 42V26H17.78L17.29 24.66C17.1328 24.2563 17.0351 23.8318 17 23.4C16.8712 21.8318 17.8877 20.3978 19.41 20C20.9214 19.6048 22.4832 20.4357 23 21.91L23.35 22.52H24C24.404 22.5458 24.7891 22.3456 25 22C25.5072 20.8266 26.625 20.0326 27.9 19.94C29.0061 19.9605 30.0168 20.5708 30.55 21.54L32.28 20.54C31.3944 18.9481 29.7216 17.9551 27.9 17.94C26.3854 17.9373 24.9512 18.6213 24 19.8C22.8018 18.2261 20.7679 17.5375 18.86 18.06C16.4262 18.7317 14.8086 21.0325 15 23.55C15.0068 23.7009 15.0235 23.8513 15.05 24H11V19.8L13.07 17.75V11.75L11 9.74V6H37V9.74L34.93 11.74V17.74L37 19.8V24H31L30.76 24.66C29.96 26.88 27.47 28.86 25.65 30.3C25.02 30.8 24.48 31.23 24.04 31.63C23.6 31.22 23.04 30.79 22.41 30.28C21.78 29.77 20.77 29 20 28.27L18.64 29.73C19.49 30.52 20.38 31.23 21.17 31.85C21.8908 32.3721 22.5605 32.9614 23.17 33.61C23.3725 33.8879 23.6961 34.0516 24.04 34.05H24.61L24.91 33.65C25.521 33.009 26.1906 32.4265 26.91 31.91C28.75 30.45 31.22 28.49 32.38 26.04H37V42H11Z"  fill="currentColor"/>
</svg>

<svg xmlns="http://www.w3.org/2000/svg" width="48" height="48" fill="none" viewBox="0 0 48 48"><path fill="currentColor" fill-rule="evenodd" d="M5 0v48h38V0zm36 46H7V2h34zm-2-27-2.07-2v-4.3l2.07-2V4H9v6.57l2.07 2v4.3L9 19v25h30zM11 42V26h6.78l-.49-1.34A4.47 4.47 0 0 1 17 23.4c-.1288-1.5682.8877-3.0022 2.41-3.4 1.5114-.3952 3.0732.4357 3.59 1.91l.35.61H24a1.09 1.09 0 0 0 1-.52 3.43 3.43 0 0 1 2.9-2.06 3.09 3.09 0 0 1 2.65 1.6l1.73-1a5.06 5.06 0 0 0-4.38-2.6A5 5 0 0 0 24 19.8a4.85 4.85 0 0 0-5.14-1.74c-2.4338.6717-4.0514 2.9725-3.86 5.49a3.45 3.45 0 0 0 .05.45H11v-4.2l2.07-2.05v-6L11 9.74V6h26v3.74l-2.07 2v6L37 19.8V24h-6l-.24.66c-.8 2.22-3.29 4.2-5.11 5.64-.63.5-1.17.93-1.61 1.33-.44-.41-1-.84-1.63-1.35S20.77 29 20 28.27l-1.36 1.46c.85.79 1.74 1.5 2.53 2.12a14.07 14.07 0 0 1 2 1.76c.2025.2779.5261.4416.87.44h.57l.3-.4a14.2 14.2 0 0 1 2-1.74c1.84-1.46 4.31-3.42 5.47-5.87H37V42z" clip-rule="evenodd"/></svg>
